!!!COM: Johanna Kinkel
!!!CNT: Deutsch
!!!TXO: Deutsch
!!!OTL: Wunsch
!!!LYR: Kopisch
!!!OPR: Sechs Lieder
!!!OPS: Op. 7
!!!ONM: No. 2
!!!ENC: Ben Fuhrman
!!!YOR: Frauen komponieren: 25 Lieder fu2r Singstimme und Klavier
!!!YOR: Mainz, B. Schott's So2hne, 1992.
!!!ODT: 1838
!!NB: Only vocal melody encoded.
!!NB: First instance of melodic material only encoded.
!!created: 2/19/10 3:01PM
!!proofed and posted: 2/19/10 3:02PM
**kern	**silbe
*clef G2	*
*k[f#c#g#]	*
*M6/8	*
*MM[Andantino]	*
=4	=4
4.r	.
4r	.
{8cc#	{Im
=5	=5
8.cc#	Mee-
16dd	|
8cc#	-re
16g#	mo2cht
16a	|
8b	|
16a	ich
16g#	|
=6	=6
(4a	fah
24g#)	|
24a	|
24g#	|
4f#	-ren,
8f#	mit
=7	=7
4e	Dir,
8e	mit
4ee	dir
24dd	al-
24cc#	|
24b	|
=8	=8
4.cc#}	-lein,}
4r	.
8r	.
=9	=9
{4dd	{mo2cht'
8a	auf
8b	ein-
8gn	-sa-
8b	-mem
=10	=10
4.a	Ei-
4f#	-land
16f#	mit
16g#	|
=11	=11
4a	Dir
24a	ver-
24g#	|
24f#	|
4c#	-schla-
24e#	-gen
24f#	|
24g#	|
=12	=12
4.f#}	sein.}
4r	.
{8a	{Da
=13	=13
*MM[Allegretto ma non troppo]	*
8a	wa2-
8f#	-ren
8a	nicht
8.b	Muh-
16a	-men
8g#	und
=14	=14
4.a	Ba-
4f#	-sen,
8f#	nur
=15	=15
4b	Du
8f#	und
4dd	ich
24dd	al-
24cc#	|
24b	|
=16	=16
4.cc#}	-lein,}
4r	.
{8a	{da
=17	=17
8a	wu2r-
8f#	-dest
8a	Du
8b	nicht
8a	|
8g#	so
=18	=18
4.dd	spro2-
4cc#	-de,
8cc#	nicht
=19	=19
4ee#	hart
8cc#	und
4b	grau-
24b	-sam
24a	|
24g#	|
=20	=20
4.f#}	sein,}
4r	.
{16a	{nicht
16b	|
=21	=21
4cc#	hart
24cc#	und
24dd	|
24ee	|
4dd	grau-
32dd	-sam
32cc#	|
32b	|
32cc#	|
=22	=22
4.a}	sein.}
4r	.
{8a	{Da
=23	=23
8a	schla2ngst
8f#	Du
8a	die
8.b	Li-
16a	-li-
8g#	-en-
=24	=24
4.a	-ar-
4f#	-me
8f#	mir
=25	=25
8b	lie-
8f#	-bend
8f#	um
4dd	Hals
24dd	und
24cc#	|
24b	|
=26	=26
4.cc#}	Brust,}
4r	.
{8a	{und
=27	=27
8a	ich,
8f#	|
8a	ich
8b	du2rf-
8a	-te
8g#	Dich
=28	=28
4.dd	ku2s-
4cc#	-sen,
8cc#	nach
=29	=29
4ee#	mei-
8cc#	-nes
4b	Her-
24b	-zens
24a	|
24g#	|
=30	=30
4.f#}	Lust,}
4r	.
{16a	{nach
16b	|
=31	=31
4cc#	mei-
24cc#	-nes
24dd	|
24ee	|
4dd	Her-
32dd	-zens
32cc#	|
32b	|
32cc#	|
=32	=32
4.a}	Lust,
4a	.
{8a	{Wir
=33	=33
8a	sa2-
8f#	-ssen
8a	und
8.b	strick-
16a	-ten
8g#	uns
=34	=34
4.a	Net-
4f#	-ze
8f#	und
=35	=35
8b	fin-
8f#	-gen
8f#	uns
4dd	Fi-
24dd	-sche
24cc#	|
24b	im
=36	=36
4.cc#}	Meer,}
4r	.
{8a	{und
=37	=37
8a	Gast
8f#	wa2r'
8a	al-
8b	-lein
8a	|
8g#	die
=38	=38
4.dd	Lie-
4cc#	-be
8cc#	und
=39	=39
4ee#	wei-
8cc#	-ter
4b	nie-
24b	-mand
24a	|
24g#	|
=40	=40
4.f#}	mehr,}
4r	.
{16a	{und
16b	|
=41	=41
4cc#	wei-
24cc#	-ter
24dd	|
24ee	|
4dd	nie-
32dd	-mand
32cc#	|
32b	|
32cc#	|
=42	=42
4.a}	mehr.}
4r	.
{8cc#	{Im
=43	=43
*MM[Tempo I - Andantino]	*
(8.cc#	Mee-
16dd)	|
8cc#	-re
(16g#	mo2cht'
16a	|
8b)	|
16a	ich
16g#	|
=44	=44
(4a	fah
24g#	|
24a	|
24g#)	|
8f#	-ren,
8r	.
8f#	mit
=45	=45
4e	Dir,
8e	mit
4ee	Dir
24dd	al-
24cc#	|
24b	|
=46	=46
4.cc#}	-lein,}
4.r	.
=47	=47
{4dd	{mo2cht'
8a	auf
8b	ein-
8gn	-sa-
8b	-mem
=48	=48
4.a	Ei-
4f#	-land,
16f#	mit
16g#	|
=49	=49
4a	Dir
24a	ver-
24g#	|
24f#	|
4c#	-schla-
24e#	-gen
24f#	|
24g#	|
=50	=50
4.f#}	sein.}
4.r	.
==	==
*-	*-
